X: 1
T: Paddy Fahey's
R: reel
M: 4/4
L: 1/8
K: Dmin
F2 DE FAde|fedc AGFE|FA,DE FDGF|EGdG EGCE|
DA,DE FAde|fece d3e|^fgag fdAG|F2EG FDD2|
DA,DE FAde|fedc AGFE|F3D G3F|E/F/GdG EGCE|
DA,DE FAde|fece d3e|^fgag fdAG|F2EG FDD2||
K: Dmaj
|:fgag fdde|d=cAB cAG2|Addc defg|a2fd adge|
fgag fdde|dcAG =c3A|d3e fged|cAGE D4:|

composer: Paddy Fahey
